assets/efishery/cumi-cumi-fill.svg

<svg width="24" height="25" viewBox="0 0 24 25" fill="none" xmlns="http://www.w3.org/2000/svg">
<path fill-rule="evenodd" clip-rule="evenodd" d="M13.4894 2.79597C13.5679 2.80774 13.6468 2.8205 13.7261 2.83423L13.753 2.8389L13.7795 2.84551C15.4035 3.25047 16.5682 4.16684 17.3227 5.03202C17.6998 5.46449 17.981 5.89136 18.1716 6.24992C18.2667 6.42878 18.343 6.59793 18.3977 6.74869C18.4435 6.8751 18.5027 7.06397 18.5027 7.25438C18.5027 7.65656 18.2683 7.95863 18.1009 8.13011C17.9113 8.32435 17.6664 8.4957 17.4014 8.64224C17.0219 8.85207 16.5497 9.03938 16.0165 9.17783C16.9713 9.50979 17.6565 10.4175 17.6565 11.4853C17.6565 12.5726 16.9461 13.4939 15.9641 13.8104V14.8701C15.9641 15.3094 15.7866 15.7073 15.4994 15.9959C15.4997 16.0051 15.4999 16.0142 15.4999 16.0234C15.4999 17.0996 15.6113 17.649 15.7867 17.9308C15.8959 18.1063 16.0873 18.2734 16.7499 18.2734C17.1641 18.2734 17.4999 18.6092 17.4999 19.0234C17.4999 19.4377 17.1641 19.7734 16.7499 19.7734C15.8124 19.7734 15.0038 19.512 14.5131 18.7232C14.1482 18.1368 14.0314 17.3522 14.0058 16.4663H14.0023C14.0233 18.3626 14.1846 19.5742 14.5295 20.3134C14.7022 20.6836 14.9072 20.9024 15.1441 21.0393C15.3895 21.1813 15.7357 21.2734 16.2499 21.2734C16.6641 21.2734 16.9999 21.6092 16.9999 22.0234C16.9999 22.4377 16.6641 22.7734 16.2499 22.7734C15.5641 22.7734 14.9352 22.6513 14.3932 22.3379C13.8426 22.0195 13.4475 21.5419 13.1702 20.9477C12.6785 19.8941 12.5217 18.3868 12.5021 16.4663H11.9977C11.9781 18.3868 11.8212 19.8941 11.3295 20.9477C11.0522 21.5419 10.6572 22.0195 10.1066 22.3379C9.56453 22.6513 8.93566 22.7734 8.24988 22.7734C7.83566 22.7734 7.49988 22.4377 7.49988 22.0234C7.49988 21.6092 7.83566 21.2734 8.24988 21.2734C8.7641 21.2734 9.11022 21.1813 9.3557 21.0393C9.59256 20.9024 9.79751 20.6836 9.97024 20.3134C10.3152 19.5742 10.4765 18.3626 10.4975 16.4663H10.4939C10.4683 17.3522 10.3516 18.1368 9.98667 18.7232C9.49591 19.512 8.68732 19.7734 7.74988 19.7734C7.33566 19.7734 6.99988 19.4377 6.99988 19.0234C6.99988 18.6092 7.33566 18.2734 7.74988 18.2734C8.41243 18.2734 8.60385 18.1063 8.71309 17.9308C8.88843 17.649 8.99988 17.0996 8.99988 16.0234C8.99988 16.0126 9.00011 16.0017 9.00057 15.991C8.71625 15.7028 8.54077 15.3069 8.54077 14.8701V13.8104C7.55881 13.4939 6.84839 12.5726 6.84839 11.4853C6.84839 10.4112 7.5418 9.49899 8.50542 9.17196C7.93821 9.02114 7.46175 8.82968 7.08444 8.61544C6.82856 8.47015 6.6017 8.30499 6.42237 8.1205C6.33277 8.02832 6.24261 7.91845 6.16833 7.79167L6.13843 7.77672L6.14639 7.75284C6.08858 7.64674 6.04243 7.52946 6.01683 7.40144C5.97805 7.20749 6.01583 7.03675 6.03509 6.9598C6.05984 6.8609 6.09575 6.76385 6.13306 6.67611C6.20841 6.49886 6.3157 6.29858 6.44264 6.09126C6.69798 5.67423 7.06549 5.17557 7.50998 4.69715C7.95301 4.22029 8.49196 3.74254 9.09436 3.38874C9.64857 3.06326 10.2936 2.82143 10.9854 2.81975C11.1685 2.67373 11.36 2.54671 11.5538 2.45234C11.7482 2.35761 11.9903 2.27344 12.2524 2.27344C12.5145 2.27344 12.7567 2.35761 12.9511 2.45234C13.1342 2.54155 13.3154 2.65994 13.4894 2.79597ZM10.0408 8.10057C10.0408 6.88347 10.5027 5.76007 11.0714 4.93675C11.2997 4.60619 11.5366 4.33677 11.7524 4.13737V5.9851C11.7524 6.26124 11.9763 6.4851 12.2524 6.4851C12.5286 6.4851 12.7524 6.26124 12.7524 5.9851V4.13738C12.9683 4.33679 13.2052 4.60619 13.4335 4.93675C14.0022 5.76007 14.4641 6.88347 14.4641 8.10057C14.4641 8.19464 14.4204 8.34281 14.2739 8.60576C14.2233 8.69667 14.1718 8.78214 14.1141 8.87802C14.09 8.9181 14.0647 8.96012 14.038 9.005C13.9543 9.14563 13.8592 9.31031 13.7809 9.48266C13.7755 9.49458 13.7704 9.50657 13.7657 9.51861C13.1628 9.96336 12.7717 10.6787 12.7717 11.4853C12.7717 12.5726 13.4821 13.4939 14.4641 13.8104V14.8701C14.4641 14.9232 14.421 14.9663 14.3679 14.9663H10.137C10.0838 14.9663 10.0408 14.9232 10.0408 14.8701V13.8104C11.0227 13.4939 11.7331 12.5726 11.7331 11.4853C11.7331 10.6787 11.3421 9.96335 10.7392 9.5186C10.7345 9.50656 10.7294 9.49458 10.724 9.48266C10.6456 9.31031 10.5506 9.14563 10.4669 9.005C10.4402 8.96011 10.4149 8.91821 10.3908 8.87812C10.3331 8.78221 10.2816 8.69669 10.2309 8.60576C10.0844 8.34281 10.0408 8.19464 10.0408 8.10057Z" fill="#1D1D1D"/>
</svg>

<svg viewBox="0 0 24 25" xmlns="http://www.w3.org/2000/svg">
  <path fill-rule="evenodd" clip-rule="evenodd" d="m13.49 2.796.236.038.027.005.027.007a6.919 6.919 0 0 1 3.543 2.186c.377.432.658.86.849 1.218.095.179.171.348.226.499.046.126.105.315.105.505 0 .403-.235.705-.402.876a3.03 3.03 0 0 1-.7.512c-.38.21-.851.397-1.384.536a2.443 2.443 0 0 1-.053 4.632v1.06c0 .44-.177.837-.465 1.126v.027c0 1.077.112 1.626.288 1.908.109.175.3.342.963.342a.75.75 0 0 1 0 1.5c-.938 0-1.746-.261-2.237-1.05-.365-.586-.482-1.37-.507-2.257h-.004c.021 1.897.183 3.108.527 3.847.173.37.378.59.615.726.245.142.592.234 1.106.234a.75.75 0 0 1 0 1.5c-.686 0-1.315-.122-1.857-.435-.55-.319-.946-.796-1.223-1.39-.492-1.054-.648-2.561-.668-4.482h-.504c-.02 1.92-.177 3.428-.668 4.482-.278.594-.673 1.072-1.223 1.39-.542.313-1.171.435-1.857.435a.75.75 0 1 1 0-1.5c.514 0 .86-.092 1.106-.234.237-.137.442-.355.614-.726.345-.739.506-1.95.527-3.847h-.003c-.026.886-.142 1.67-.507 2.257-.491.789-1.3 1.05-2.237 1.05a.75.75 0 1 1 0-1.5c.662 0 .854-.167.963-.342.175-.282.287-.831.287-1.908v-.032a1.591 1.591 0 0 1-.46-1.12v-1.06a2.443 2.443 0 0 1-.035-4.639 6.04 6.04 0 0 1-1.42-.557 2.96 2.96 0 0 1-.663-.495 1.734 1.734 0 0 1-.254-.328l-.03-.015.008-.024a1.243 1.243 0 0 1-.13-.352 1.01 1.01 0 0 1 .02-.441c.024-.1.06-.196.097-.284a4.62 4.62 0 0 1 .31-.585A9.081 9.081 0 0 1 7.51 4.697c.443-.477.982-.954 1.584-1.308.555-.326 1.2-.568 1.891-.57.184-.145.375-.272.569-.367.194-.094.436-.179.698-.179.262 0 .505.085.7.18.182.089.363.207.537.343zm-3.45 5.305c0-1.218.463-2.34 1.031-3.164.229-.33.466-.6.681-.8v1.848a.5.5 0 0 0 1 0V4.137c.216.2.453.47.681.8.57.823 1.031 1.946 1.031 3.164 0 .094-.044.242-.19.505-.05.09-.102.176-.16.272l-.076.127a4.954 4.954 0 0 0-.272.514 2.443 2.443 0 0 0 .698 4.292v1.06a.096.096 0 0 1-.096.095h-4.231a.096.096 0 0 1-.096-.096v-1.06a2.443 2.443 0 0 0 .698-4.291 4.976 4.976 0 0 0-.272-.514l-.076-.127c-.058-.096-.11-.181-.16-.272-.147-.263-.19-.411-.19-.505z"/>
</svg>
